X: 3648
T:Out on the Road
C:Liz Carroll
M:6/8
L:1/8
K:D
A|"D"F2F DFA|dfe d2A|"Bm"BAd BAF|"D"ABA "A"F2E|!
"D"EFE DFA|dfe d2A|"G"BAF AFD|1 "A"EFE "D"D2A:|2 EFE2DB||!
"D"Add edB|Adf edB|Add edB|Adf "A"e2B|1 "D"Add edB|!
Adf afd|"G"B2B AFE|"A"EFE "D"D2B:|2 "Bm"add f3|"G"dBB B3|!
"D"B3 AFE|"A"EFE "D"D2A|
